mimes/48/application-x-ms-dos-executable.svg

<?xml version="1.0" encoding="UTF-8" standalone="no"?>
<svg
   xmlns:dc="http://purl.org/dc/elements/1.1/"
   xmlns:cc="http://creativecommons.org/ns#"
   xmlns:rdf="http://www.w3.org/1999/02/22-rdf-syntax-ns#"
   xmlns:svg="http://www.w3.org/2000/svg"
   xmlns="http://www.w3.org/2000/svg"
   xmlns:xlink="http://www.w3.org/1999/xlink"
   version="1.1"
   width="48"
   height="48"
   id="svg4405">
  <defs
     id="defs4407">
    <linearGradient
       id="linearGradient4260">
      <stop
         id="stop4262"
         style="stop-color:#000000;stop-opacity:1"
         offset="0" />
      <stop
         id="stop4264"
         style="stop-color:#000000;stop-opacity:0"
         offset="1" />
    </linearGradient>
    <linearGradient
       id="linearGradient3707-319-631-407-324-616">
      <stop
         id="stop3246"
         style="stop-color:#505050;stop-opacity:1"
         offset="0" />
      <stop
         id="stop3248"
         style="stop-color:#8e8e8e;stop-opacity:1"
         offset="1" />
    </linearGradient>
    <linearGradient
       x1="23.99999"
       y1="4.999989"
       x2="23.99999"
       y2="43"
       id="linearGradient3473"
       xlink:href="#linearGradient3924-803"
       gradientUnits="userSpaceOnUse"
       gradientTransform="translate(1.17e-5,1.00001)" />
    <linearGradient
       id="linearGradient3924-803">
      <stop
         id="stop3252"
         style="stop-color:#ffffff;stop-opacity:1"
         offset="0" />
      <stop
         id="stop3254"
         style="stop-color:#ffffff;stop-opacity:0.23529412"
         offset="0.06316455" />
      <stop
         id="stop3256"
         style="stop-color:#ffffff;stop-opacity:0.15686275"
         offset="0.95056331" />
      <stop
         id="stop3258"
         style="stop-color:#ffffff;stop-opacity:0.39215687"
         offset="1" />
    </linearGradient>
    <radialGradient
       cx="7.4956832"
       cy="8.4497671"
       r="19.99999"
       fx="7.4956832"
       fy="8.4497671"
       id="radialGradient3476"
       xlink:href="#linearGradient2867-449-88-871-390-598-476-591-434-148-57-177-641"
       gradientUnits="userSpaceOnUse"
       gradientTransform="matrix(1.9428467e-8,2.33699,-2.4722567,-4.3056275e-8,44.890112,-11.434799)" />
    <linearGradient
       id="linearGradient2867-449-88-871-390-598-476-591-434-148-57-177-641">
      <stop
         id="stop3236"
         style="stop-color:#c7c7c7;stop-opacity:1"
         offset="0" />
      <stop
         id="stop3238"
         style="stop-color:#a6a6a6;stop-opacity:1"
         offset="0.26238" />
      <stop
         id="stop3240"
         style="stop-color:#7b7b7b;stop-opacity:1"
         offset="0.704952" />
      <stop
         id="stop3242"
         style="stop-color:#595959;stop-opacity:1"
         offset="1" />
    </linearGradient>
    <linearGradient
       x1="24"
       y1="44"
       x2="24"
       y2="3.8990016"
       id="linearGradient3478"
       xlink:href="#linearGradient3707-319-631-407-324-616"
       gradientUnits="userSpaceOnUse"
       gradientTransform="translate(9.2e-6,1)" />
    <radialGradient
       cx="4.9929786"
       cy="43.5"
       r="2.5"
       fx="4.9929786"
       fy="43.5"
       id="radialGradient3013-896"
       xlink:href="#linearGradient3688-166-749-2-324"
       gradientUnits="userSpaceOnUse"
       gradientTransform="matrix(2.003784,0,0,1.4,27.98813,-17.4)" />
    <linearGradient
       id="linearGradient3688-166-749-2-324">
      <stop
         id="stop3216"
         style="stop-color:#181818;stop-opacity:1"
         offset="0" />
      <stop
         id="stop3218"
         style="stop-color:#181818;stop-opacity:0"
         offset="1" />
    </linearGradient>
    <radialGradient
       cx="4.9929786"
       cy="43.5"
       r="2.5"
       fx="4.9929786"
       fy="43.5"
       id="radialGradient3015-826"
       xlink:href="#linearGradient3688-464-309-8-331"
       gradientUnits="userSpaceOnUse"
       gradientTransform="matrix(2.003784,0,0,1.4,-20.01187,-104.4)" />
    <linearGradient
       id="linearGradient3688-464-309-8-331">
      <stop
         id="stop3222"
         style="stop-color:#181818;stop-opacity:1"
         offset="0" />
      <stop
         id="stop3224"
         style="stop-color:#181818;stop-opacity:0"
         offset="1" />
    </linearGradient>
    <linearGradient
       id="linearGradient3702-501-757-6-946">
      <stop
         id="stop3228"
         style="stop-color:#181818;stop-opacity:0"
         offset="0" />
      <stop
         id="stop3230"
         style="stop-color:#181818;stop-opacity:1"
         offset="0.5" />
      <stop
         id="stop3232"
         style="stop-color:#181818;stop-opacity:0"
         offset="1" />
    </linearGradient>
    <linearGradient
       x1="25.058096"
       y1="47.027729"
       x2="25.058096"
       y2="39.999443"
       id="linearGradient4395"
       xlink:href="#linearGradient3702-501-757-6-946"
       gradientUnits="userSpaceOnUse" />
    <filter
       color-interpolation-filters="sRGB"
       id="filter3174">
      <feGaussianBlur
         stdDeviation="1.71"
         id="feGaussianBlur3176" />
    </filter>
    <linearGradient
       x1="45.447727"
       y1="92.539597"
       x2="45.447727"
       y2="7.0165396"
       id="ButtonShadow"
       gradientUnits="userSpaceOnUse"
       gradientTransform="scale(1.0058652,0.994169)">
      <stop
         id="stop3750"
         style="stop-color:#000000;stop-opacity:1"
         offset="0" />
      <stop
         id="stop3752"
         style="stop-color:#000000;stop-opacity:0.58823532"
         offset="1" />
    </linearGradient>
    <linearGradient
       x1="206.6895"
       y1="-167.532"
       x2="206.6895"
       y2="-167.532"
       id="SVGID_14_"
       gradientUnits="userSpaceOnUse"
       gradientTransform="matrix(1,0,0,-1,-270.96,-122.0747)">
      <stop
         id="stop3506"
         style="stop-color:#7e9ec4;stop-opacity:1"
         offset="0" />
      <stop
         id="stop3508"
         style="stop-color:#151d89;stop-opacity:1"
         offset="1" />
    </linearGradient>
    <linearGradient
       x1="206.6895"
       y1="-167.532"
       x2="206.6895"
       y2="-167.532"
       id="linearGradient3182"
       xlink:href="#SVGID_14_"
       gradientUnits="userSpaceOnUse"
       gradientTransform="matrix(0.7283166,0,0,-0.7283166,-280.99116,-99.14398)" />
    <linearGradient
       x1="206.6895"
       y1="-167.532"
       x2="206.6895"
       y2="-167.532"
       id="linearGradient3185"
       xlink:href="#SVGID_14_"
       gradientUnits="userSpaceOnUse"
       gradientTransform="matrix(0.7283166,0,0,-0.7283166,-200.99116,-100.14398)" />
    <linearGradient
       x1="44.228275"
       y1="18.456329"
       x2="16.354654"
       y2="-9.4172926"
       id="linearGradient4273-7-3"
       xlink:href="#linearGradient3707-319-631-407-324-616-6-7"
       gradientUnits="userSpaceOnUse" />
    <linearGradient
       id="linearGradient3707-319-631-407-324-616-6-7">
      <stop
         id="stop3246-7-4"
         style="stop-color:#505050;stop-opacity:1"
         offset="0" />
      <stop
         id="stop3248-3-8"
         style="stop-color:#8e8e8e;stop-opacity:1"
         offset="1" />
    </linearGradient>
    <linearGradient
       x1="26.313066"
       y1="9.8269262"
       x2="26.313066"
       y2="23.605091"
       id="linearGradient4276"
       xlink:href="#linearGradient4260"
       gradientUnits="userSpaceOnUse"
       gradientTransform="matrix(0.92307714,0,0,0.90357109,1.8846115,1.7178603)" />
    <linearGradient
       id="linearGradient4260-7">
      <stop
         id="stop4262-3"
         style="stop-color:#000000;stop-opacity:1"
         offset="0" />
      <stop
         id="stop4264-9"
         style="stop-color:#000000;stop-opacity:0"
         offset="1" />
    </linearGradient>
    <linearGradient
       x1="26.313066"
       y1="9.8269262"
       x2="26.313066"
       y2="23.605091"
       id="linearGradient4293"
       xlink:href="#linearGradient4260-7"
       gradientUnits="userSpaceOnUse"
       gradientTransform="matrix(0.92307714,0,0,0.9229594,-6.115388,9.2719283)" />
    <linearGradient
       id="linearGradient4260-6">
      <stop
         id="stop4262-7"
         style="stop-color:#000000;stop-opacity:1"
         offset="0" />
      <stop
         id="stop4264-90"
         style="stop-color:#000000;stop-opacity:0"
         offset="1" />
    </linearGradient>
    <linearGradient
       x1="26.313066"
       y1="9.8269262"
       x2="26.313066"
       y2="23.605091"
       id="linearGradient4293-5"
       xlink:href="#linearGradient4260-6"
       gradientUnits="userSpaceOnUse"
       gradientTransform="matrix(0.92307714,0,0,0.9229594,1.884612,17.271928)" />
    <linearGradient
       id="linearGradient4260-8">
      <stop
         id="stop4262-1"
         style="stop-color:#000000;stop-opacity:1"
         offset="0" />
      <stop
         id="stop4264-8"
         style="stop-color:#000000;stop-opacity:0"
         offset="1" />
    </linearGradient>
    <linearGradient
       x1="26.313066"
       y1="9.8269262"
       x2="26.313066"
       y2="23.605091"
       id="linearGradient4293-9"
       xlink:href="#linearGradient4260-8"
       gradientUnits="userSpaceOnUse"
       gradientTransform="matrix(0.92307714,0,0,0.9229594,9.884612,9.2719283)" />
    <linearGradient
       x1="44.228275"
       y1="18.456329"
       x2="16.354654"
       y2="-9.4172926"
       id="linearGradient3065"
       xlink:href="#linearGradient3707-319-631-407-324-616-6-7"
       gradientUnits="userSpaceOnUse" />
    <linearGradient
       x1="26.313066"
       y1="9.8269262"
       x2="26.313066"
       y2="23.605091"
       id="linearGradient3067"
       xlink:href="#linearGradient4260"
       gradientUnits="userSpaceOnUse"
       gradientTransform="matrix(0.92307714,0,0,0.90357109,1.8846115,1.7178603)" />
    <linearGradient
       x1="26.313066"
       y1="9.8269262"
       x2="26.313066"
       y2="23.605091"
       id="linearGradient3069"
       xlink:href="#linearGradient4260-7"
       gradientUnits="userSpaceOnUse"
       gradientTransform="matrix(0.92307714,0,0,0.9229594,-6.115388,9.2719283)" />
    <linearGradient
       x1="26.313066"
       y1="9.8269262"
       x2="26.313066"
       y2="23.605091"
       id="linearGradient3071"
       xlink:href="#linearGradient4260-6"
       gradientUnits="userSpaceOnUse"
       gradientTransform="matrix(0.92307714,0,0,0.9229594,1.884612,17.271928)" />
    <linearGradient
       x1="26.313066"
       y1="9.8269262"
       x2="26.313066"
       y2="23.605091"
       id="linearGradient3073"
       xlink:href="#linearGradient4260-8"
       gradientUnits="userSpaceOnUse"
       gradientTransform="matrix(0.92307714,0,0,0.9229594,9.884612,9.2719283)" />
    <linearGradient
       x1="26.313066"
       y1="9.8269262"
       x2="26.313066"
       y2="23.605091"
       id="linearGradient3076"
       xlink:href="#linearGradient4260-8"
       gradientUnits="userSpaceOnUse"
       gradientTransform="matrix(0.95490733,0,0,0.92365919,8.8806357,9.248442)" />
    <linearGradient
       x1="26.313066"
       y1="9.8269262"
       x2="26.313066"
       y2="23.605091"
       id="linearGradient3079"
       xlink:href="#linearGradient4260-6"
       gradientUnits="userSpaceOnUse"
       gradientTransform="matrix(0.95490733,0,0,0.92365919,0.60477411,17.254507)" />
    <linearGradient
       x1="26.313066"
       y1="9.8269262"
       x2="26.313066"
       y2="23.605091"
       id="linearGradient3082"
       xlink:href="#linearGradient4260-7"
       gradientUnits="userSpaceOnUse"
       gradientTransform="matrix(0.95490733,0,0,0.92365919,-7.6710875,9.248442)" />
    <linearGradient
       x1="26.313066"
       y1="9.8269262"
       x2="26.313066"
       y2="23.605091"
       id="linearGradient3085"
       xlink:href="#linearGradient4260"
       gradientUnits="userSpaceOnUse"
       gradientTransform="matrix(0.95490733,0,0,0.90425618,0.60477359,1.6886465)" />
    <linearGradient
       x1="44.228275"
       y1="18.456329"
       x2="16.354654"
       y2="-9.4172926"
       id="linearGradient3088"
       xlink:href="#linearGradient3707-319-631-407-324-616-6-7"
       gradientUnits="userSpaceOnUse"
       gradientTransform="matrix(0.73148973,0.70764291,-0.73148973,0.70764291,-1.3448244,-0.03051625)" />
    <linearGradient
       x1="44.228275"
       y1="18.456329"
       x2="16.354654"
       y2="-9.4172926"
       id="linearGradient3098"
       xlink:href="#linearGradient3707-319-631-407-324-616-6-7"
       gradientUnits="userSpaceOnUse"
       gradientTransform="matrix(0.73148973,0.70764291,-0.73148973,0.70764291,-1.3448244,-0.03051625)" />
    <linearGradient
       x1="26.313066"
       y1="9.8269262"
       x2="26.313066"
       y2="23.605091"
       id="linearGradient3100"
       xlink:href="#linearGradient4260"
       gradientUnits="userSpaceOnUse"
       gradientTransform="matrix(0.95490733,0,0,0.90425618,0.60477359,1.6886465)" />
    <linearGradient
       x1="26.313066"
       y1="9.8269262"
       x2="26.313066"
       y2="23.605091"
       id="linearGradient3102"
       xlink:href="#linearGradient4260-7"
       gradientUnits="userSpaceOnUse"
       gradientTransform="matrix(0.95490733,0,0,0.92365919,-7.6710875,9.248442)" />
    <linearGradient
       x1="26.313066"
       y1="9.8269262"
       x2="26.313066"
       y2="23.605091"
       id="linearGradient3104"
       xlink:href="#linearGradient4260-6"
       gradientUnits="userSpaceOnUse"
       gradientTransform="matrix(0.95490733,0,0,0.92365919,0.60477411,17.254507)" />
    <linearGradient
       x1="26.313066"
       y1="9.8269262"
       x2="26.313066"
       y2="23.605091"
       id="linearGradient3106"
       xlink:href="#linearGradient4260-8"
       gradientUnits="userSpaceOnUse"
       gradientTransform="matrix(0.95490733,0,0,0.92365919,8.8806357,9.248442)" />
  </defs>
  <metadata
     id="metadata4410">
    <rdf:RDF>
      <cc:Work
         rdf:about="">
        <dc:format>image/svg+xml</dc:format>
        <dc:type
           rdf:resource="http://purl.org/dc/dcmitype/StillImage" />
        <dc:title />
      </cc:Work>
    </rdf:RDF>
  </metadata>
  <g
     id="layer1">
    <g
       transform="matrix(1.1578952,0,0,0.57142859,-3.789476,19.142856)"
       id="g3712-0"
       style="opacity:0.4">
      <rect
         width="5"
         height="7"
         x="38"
         y="40"
         id="rect2801-4"
         style="fill:url(#radialGradient3013-896);fill-opacity:1;stroke:none" />
      <rect
         width="5"
         height="7"
         x="-10"
         y="-47"
         transform="scale(-1,-1)"
         id="rect3696-8"
         style="fill:url(#radialGradient3015-826);fill-opacity:1;stroke:none" />
      <rect
         width="28"
         height="7.0000005"
         x="10"
         y="40"
         id="rect3700-7"
         style="fill:url(#linearGradient4395);fill-opacity:1;stroke:none" />
    </g>
    <rect
       width="39"
       height="39"
       rx="2"
       ry="2"
       x="4.5000081"
       y="5.5"
       id="rect5505-21"
       style="color:#000000;fill:url(#radialGradient3476);fill-opacity:1;fill-rule:nonzero;stroke:url(#linearGradient3478);stroke-width:1;stroke-linecap:round;stroke-linejoin:round;stroke-miterlimit:4;stroke-opacity:1;stroke-dasharray:none;stroke-dashoffset:0;marker:none;visibility:visible;display:inline;overflow:visible;enable-background:accumulate" />
    <rect
       width="37"
       height="37"
       rx="1"
       ry="1"
       x="5.5000081"
       y="6.5"
       id="rect6741-1"
       style="opacity:0.5;fill:none;stroke:url(#linearGradient3473);stroke-width:1;stroke-linecap:round;stroke-linejoin:round;stroke-miterlimit:4;stroke-opacity:1;stroke-dasharray:none;stroke-dashoffset:0" />
    <g
       transform="translate(-131.28571,-19.642857)"
       id="layer2"
       style="display:none">
      <rect
         width="86"
         height="85"
         rx="6"
         ry="6"
         x="5"
         y="7"
         id="rect3745"
         style="opacity:0.9;fill:url(#ButtonShadow);fill-opacity:1;fill-rule:nonzero;stroke:none;filter:url(#filter3174)" />
    </g>
    <path
       d=""
       id="path3510"
       style="fill:url(#linearGradient3185)" />
    <path
       d=""
       id="path6922"
       style="fill:url(#linearGradient3182)" />
    <path
       d="M 24.000003,27.67405 30.724141,34.462025 24.000004,41.25 17.275865,34.462026 z m -8.275863,-8.35443 6.724138,6.787975 -6.724139,6.787977 -6.7241369,-6.787976 z m 16.551723,0.28481 6.724135,6.645573 -6.724135,6.645573 -6.724139,-6.64557 z M 24.000002,11.25 l 6.724134,6.645573 -6.724134,6.645573 -6.724138,-6.64557 z"
       id="rect4120-5-3"
       style="opacity:0.4;color:#000000;fill:#ffffff;fill-opacity:1;fill-rule:nonzero;stroke:none;stroke-width:1.70000005;marker:none;visibility:visible;display:inline;overflow:visible;enable-background:accumulate" />
    <g
       transform="matrix(1,0,0,1.0435126,0,-0.69600367)"
       id="g3091">
      <path
         d="m 24.000003,25.989196 6.724138,6.504928 -6.724138,6.504929 -6.724137,-6.504928 z M 15.72414,17.983131 22.448278,24.48806 15.72414,30.992988 9.0000021,24.48806 z m 16.551723,0.272934 6.724135,6.368464 -6.724135,6.368464 -6.724138,-6.368461 z M 24.000002,10.25 l 6.724135,6.368464 -6.724135,6.368464 -6.724138,-6.368461 z"
         id="rect4120-5"
         style="color:#000000;fill:url(#linearGradient3098);fill-opacity:1;fill-rule:nonzero;stroke:none;stroke-width:1.70000005;marker:none;visibility:visible;display:inline;overflow:visible;enable-background:accumulate" />
      <path
         d="m 24.000003,10.977824 6.206895,5.754362 -6.206895,5.754358 -6.206897,-5.754356 z"
         id="rect4120-5-5"
         style="opacity:0.1;color:#000000;fill:none;stroke:url(#linearGradient3100);stroke-width:0.9789288;stroke-miterlimit:4;stroke-opacity:1;stroke-dasharray:none;marker:none;visibility:visible;display:inline;overflow:visible;enable-background:accumulate" />
      <path
         d="m 15.724141,18.736941 6.206895,5.877835 -6.206895,5.877833 -6.206897,-5.877831 z"
         id="rect4120-5-5-1"
         style="opacity:0.1;color:#000000;fill:none;stroke:url(#linearGradient3102);stroke-width:0.9789288;stroke-miterlimit:4;stroke-opacity:1;stroke-dasharray:none;marker:none;visibility:visible;display:inline;overflow:visible;enable-background:accumulate" />
      <path
         d="m 24.000003,26.743007 6.206895,5.877834 -6.206895,5.877833 -6.206897,-5.877831 z"
         id="rect4120-5-5-9"
         style="opacity:0.1;color:#000000;fill:none;stroke:url(#linearGradient3104);stroke-width:0.9789288;stroke-miterlimit:4;stroke-opacity:1;stroke-dasharray:none;marker:none;visibility:visible;display:inline;overflow:visible;enable-background:accumulate" />
      <path
         d="m 32.275864,18.736941 6.206896,5.877835 -6.206896,5.877833 -6.206897,-5.877831 z"
         id="rect4120-5-5-2"
         style="opacity:0.1;color:#000000;fill:none;stroke:url(#linearGradient3106);stroke-width:0.9789288;stroke-miterlimit:4;stroke-opacity:1;stroke-dasharray:none;marker:none;visibility:visible;display:inline;overflow:visible;enable-background:accumulate" />
    </g>
  </g>
</svg>

<svg xmlns="http://www.w3.org/2000/svg" xmlns:xlink="http://www.w3.org/1999/xlink" viewBox="0 0 48 48"><defs><linearGradient id="h"><stop offset="0"/><stop offset="1" stop-opacity="0"/></linearGradient><linearGradient id="c"><stop offset="0" stop-color="#505050"/><stop offset="1" stop-color="#8e8e8e"/></linearGradient><linearGradient x1="24" y1="5" x2="24" y2="43" id="q" xlink:href="#a" gradientUnits="userSpaceOnUse" gradientTransform="translate(0 1)"/><linearGradient id="a"><stop offset="0" stop-color="#fff"/><stop offset=".063" stop-color="#fff" stop-opacity=".235"/><stop offset=".951" stop-color="#fff" stop-opacity=".157"/><stop offset="1" stop-color="#fff" stop-opacity=".392"/></linearGradient><radialGradient cx="7.496" cy="8.45" r="20" fx="7.496" fy="8.45" id="o" xlink:href="#b" gradientUnits="userSpaceOnUse" gradientTransform="matrix(0 2.337 -2.47226 0 44.89 -11.435)"/><linearGradient id="b"><stop offset="0" stop-color="#c7c7c7"/><stop offset=".262" stop-color="#a6a6a6"/><stop offset=".705" stop-color="#7b7b7b"/><stop offset="1" stop-color="#595959"/></linearGradient><linearGradient x1="24" y1="44" x2="24" y2="3.899" id="p" xlink:href="#c" gradientUnits="userSpaceOnUse" gradientTransform="translate(0 1)"/><radialGradient cx="4.993" cy="43.5" r="2.5" fx="4.993" fy="43.5" id="l" xlink:href="#d" gradientUnits="userSpaceOnUse" gradientTransform="matrix(2.00378 0 0 1.4 27.988 -17.4)"/><linearGradient id="d"><stop offset="0" stop-color="#181818"/><stop offset="1" stop-color="#181818" stop-opacity="0"/></linearGradient><radialGradient cx="4.993" cy="43.5" r="2.5" fx="4.993" fy="43.5" id="m" xlink:href="#e" gradientUnits="userSpaceOnUse" gradientTransform="matrix(2.00378 0 0 1.4 -20.012 -104.4)"/><linearGradient id="e"><stop offset="0" stop-color="#181818"/><stop offset="1" stop-color="#181818" stop-opacity="0"/></linearGradient><linearGradient id="f"><stop offset="0" stop-color="#181818" stop-opacity="0"/><stop offset=".5" stop-color="#181818"/><stop offset="1" stop-color="#181818" stop-opacity="0"/></linearGradient><linearGradient x1="25.058" y1="47.028" x2="25.058" y2="39.999" id="n" xlink:href="#f" gradientUnits="userSpaceOnUse"/><linearGradient id="g"><stop offset="0" stop-color="#505050"/><stop offset="1" stop-color="#8e8e8e"/></linearGradient><linearGradient id="i"><stop offset="0"/><stop offset="1" stop-opacity="0"/></linearGradient><linearGradient id="j"><stop offset="0"/><stop offset="1" stop-opacity="0"/></linearGradient><linearGradient id="k"><stop offset="0"/><stop offset="1" stop-opacity="0"/></linearGradient><linearGradient x1="44.228" y1="18.456" x2="16.355" y2="-9.417" id="r" xlink:href="#g" gradientUnits="userSpaceOnUse" gradientTransform="scale(1.03448 1.00076) rotate(45 -.613 -1.584)"/><linearGradient x1="26.313" y1="9.827" x2="26.313" y2="23.605" id="s" xlink:href="#h" gradientUnits="userSpaceOnUse" gradientTransform="matrix(.9549 0 0 .90426 .605 1.69)"/><linearGradient x1="26.313" y1="9.827" x2="26.313" y2="23.605" id="t" xlink:href="#i" gradientUnits="userSpaceOnUse" gradientTransform="matrix(.9549 0 0 .92366 -7.67 9.248)"/><linearGradient x1="26.313" y1="9.827" x2="26.313" y2="23.605" id="u" xlink:href="#j" gradientUnits="userSpaceOnUse" gradientTransform="matrix(.9549 0 0 .92366 .605 17.255)"/><linearGradient x1="26.313" y1="9.827" x2="26.313" y2="23.605" id="v" xlink:href="#k" gradientUnits="userSpaceOnUse" gradientTransform="matrix(.9549 0 0 .92366 8.88 9.248)"/></defs><g opacity=".4"><path fill="url(#l)" d="M38 40h5v7h-5z" transform="matrix(1.1579 0 0 .57143 -3.79 19.143)"/><path transform="matrix(-1.1579 0 0 -.57143 -3.79 19.143)" fill="url(#m)" d="M-10-47h5v7h-5z"/><path fill="url(#n)" d="M10 40h28v7H10z" transform="matrix(1.1579 0 0 .57143 -3.79 19.143)"/></g><rect width="39" height="39" rx="2" ry="2" x="4.5" y="5.5" color="#000" fill="url(#o)" stroke="url(#p)" stroke-linecap="round" stroke-linejoin="round" overflow="visible"/><rect width="37" height="37" rx="1" ry="1" x="5.5" y="6.5" opacity=".5" fill="none" stroke="url(#q)" stroke-linecap="round" stroke-linejoin="round"/><path d="M24 27.674l6.724 6.788L24 41.25l-6.724-6.788zm-8.276-8.354l6.724 6.788-6.724 6.788L9 26.108zm16.552.284L39 26.25l-6.724 6.646-6.724-6.646zM24 11.25l6.724 6.646L24 24.54l-6.724-6.644z" opacity=".4" color="#000" fill="#fff" overflow="visible"/><g color="#000"><path d="M24 25.99l6.724 6.504L24 39l-6.724-6.506zm-8.276-8.007l6.724 6.505-6.724 6.505L9 24.488zm16.552.273L39 24.626l-6.724 6.367-6.724-6.368zM24 10.25l6.724 6.368L24 22.988l-6.724-6.37z" fill="url(#r)" overflow="visible" transform="matrix(1 0 0 1.0435 0 -.696)"/><path d="M24 10.978l6.207 5.754L24 22.487l-6.207-5.755z" opacity=".1" fill="none" stroke="url(#s)" stroke-width=".979" overflow="visible" transform="matrix(1 0 0 1.0435 0 -.696)"/><path d="M15.724 18.737l6.207 5.878-6.203 5.878-6.207-5.878z" opacity=".1" fill="none" stroke="url(#t)" stroke-width=".979" overflow="visible" transform="matrix(1 0 0 1.0435 0 -.696)"/><path d="M24 26.743l6.207 5.878L24 38.5l-6.207-5.88z" opacity=".1" fill="none" stroke="url(#u)" stroke-width=".979" overflow="visible" transform="matrix(1 0 0 1.0435 0 -.696)"/><path d="M32.276 18.737l6.207 5.878-6.207 5.878-6.207-5.878z" opacity=".1" fill="none" stroke="url(#v)" stroke-width=".979" overflow="visible" transform="matrix(1 0 0 1.0435 0 -.696)"/></g></svg>
